!!!!SEGMENT: pl-kk--kk-i-382--094-006_richling-msza-na-3-glosy-benedictus.krn
!!!id: 18xx:1610
!!!COM: Richling
!!!OTL: Msza na 3 głosy – Benedictus
!!!PDT:
!!!SMS-siglum: PL-Kk
!!!SMS-shelfmark: Kk.I.382
!!!NIFC-rismID: 1001142972
!!!URL-scan: http://repozytorium.nifc.pl/skany/pl-kk-nut--i-382
!!!ONB-nifc: S/T1 od 0062, A/B1 od 0206, B2 od 0279. Części Mszy: 1. Kyrie, 2. Et in terra, 3. Tollite portas, 4. Patrem, 5. Sanctus, 6. Benedictus, 7. Agnus Dei, 8. Dona
!!!SMS-variant:
!!!SMS-altvar:
**kern	**text	**kern	**text	**kern	**text
*part3	*part3	*part2	*part2	*part1	*part1
*staff3	*staff3	*staff2	*staff2	*staff1	*staff1
*I"Basso II	*	*I"Alto vel Basso I	*	*I"Soprano vel Tenore I.	*
*I'B2	*	*I'A / B 1	*	*I'S / T1	*
*clefF4	*	*clefF4	*	*clefG2	*
*k[f#c#g#]	*	*k[f#c#g#]	*	*k[f#c#g#]	*
*M6/8	*	*M6/8	*	*M6/8	*
=1	=1	=1	=1	=1	=1
!!LO:TX:t=P:problem:4\ 8\middle or right:global
!!LO:TX:t=P:problem:4/ 8/ 16/middle or right:global
!LO:TX:t=P:problem:16\middle or right:global	!	!LO:TX:t=P:problem:16\middle or right:global	!	!LO:TX:t=P:problem:16\right:global	!
!LO:TX:a:i:t=Andante	!	!LO:TX:a:i:B:t=Benedictus.	!	!LO:TX:a:i:t=Andante	!
4AA/	Be-	4E\	Be-	(8cc#\L	Be-
.	.	.	.	8dd\J	.
8AA/	-ne-	8E\	-ne-	8cc#\)	-ne-
8D/	-di-	8E\	-di-	8b/	-di-
8D/	-ctus	8E\	-ctus	8f#/	-ctus
8D/	qui	8E\	qui	8g#/	qui
=2	=2	=2	=2	=2	=2
(4.C#/	ve-	(4.E\	ve-	(4.a/	ve-
8D/)	.	8E\)	.	8g#/)	.
8C#/	-nit	8E\	-nit	8a/	-nit
8GG#/	in	8E\	in	8b/	in
!LO:LB:g=original	!	!LO:LB:g=original	!	!	!
=3	=3	=3	=3	=3	=3
8AA/	no-	8E\	no-	8cc#\	no-
8GG#/	-mi-	8E\	-mi-	8b\	-mi-
8AA/	-ne	8E\	-ne	8cc#\	-ne
!	!	!	!	!LO:LB:g=original	!
=-	=-	=-	=-	=-	=-
4BB/	Do-	4E\	Do-	4dd\	Do-
8AA/	-mi-	(16E\LL	-mi-	8cc#\	-mi-
.	.	16F#\JJ	.	.	.
=4	=4	=4	=4	=4	=4
4E\	-ni	4G#\)	-ni,	4b\	-ni.
8r	.	8r	.	8r	.
!LO:TX:t=P:problem:Solo dopisane ołówkiem	!	!	!	!	!
4E\	Be-	4r	.	4r	.
8E\	-ne-	8r	.	8r	.
=5	=5	=5	=5	=5	=5
4.E\	-dic-	(8G#\L	Be-	(8b\L	Be-
.	.	8F##X\J	.	8a#X\J	.
.	.	8G#\)	-ne-	8b\)	-ne-
4E\	-tus	8A\	-di-	8cc#\	-di-
.	.	8B\	-ctus	8dd\	-ctus
8E\	qui	8A\	qui	8cc#\	qui
=6	=6	=6	=6	=6	=6
(4.E\	ve-	(4.G#\	ve-	(4.b\	ve-
8D\)	.	8E\)	.	8b\)	.
8C#/	-nit	8E\	-nit	8a\	-nit
8GG#/	in	8E\	in	8b\	in
!LO:LB:g=original	!	!LO:LB:g=original	!	!LO:PB:g=original	!
=7	=7	=7	=7	=7	=7
8AA/	no-	8E\	no-	8cc#\	no-
8GG#/	-mi-	8E\	-mi-	8b\	-mi-
8AA/	-ne	8E\	-ne	8cc#\	-ne
4BB/	Do-	(8.E\L	Do-	4dd\	Do-
.	.	16F#\Jk	.	.	.
8E\	-mi-	16G#\LL	-mi-	8b\	-mi-
.	.	16E\JJ)	.	.	.
=8	=8	=8	=8	=8	=8
4AA/	-ni	4A\	-ni.	4cc#\	-ni,
8r	.	8r	.	8r	.
4r	.	4r	.	4cc#\	Be-
8r	.	8r	.	8ccn\	-ne-
=9	=9	=9	=9	=9	=9
4F#\	Be-	4A\	Be-	8b\	-di-
.	.	.	.	8cc#\	-ctus
8F#\	-ne-	8A\	-ne-	8dd#X\	qui
8E\	-dic-	8G#\	-di-	4.ee\	ve-
8F#\	-tus	8A\	-ctus	.	.
8G#\	qui	8B\	qui	.	.
!	!	!	!	!LO:LB:g=original	!
=10	=10	=10	=10	=10	=10
(4A\	ve-	(4c#\	ve-	8cc#\	.
.	.	.	.	8dd#X\	-nit
8G#\)	.	8B\)	.	8ee\	qui
(8F#\L	.	8A\L	.	(4.ff#\	ve-
8E\	.	8G#\	.	.	.
8D#X\J)	.	8F#\J	.	.	.
!LO:LB:g=original	!	!LO:LB:g=original	!	!	!
=11	=11	=11	=11	=11	=11
8E\	.	8G#\	.	8b\)	.
8E\	-nit	8G#\	-nit	8cc#\	-nit
8E\	in	8G#\	in	8b\	in
8BB/	no-	8F#\	no-	8a/	no-
!	!	!LO:TX:t=P:problem:krzyżyk dopisany ołówkiem	!	!	!
!	!	!LO:SIC:v:s=8D#	!	!	!
8BB/	-mi-	8D\	-mi-	8a/	-mi-
8C#/	-ne	8E\	-ne	8g#/	-ne
=12	=12	=12	=12	=12	=12
4AA/	Do-	(4E\	Do-	4cc#\	Do-
8AA/	-mi-	16E\LL	-mi-	8cc#\	-mi-
.	.	16F#\JJ)	.	.	.
4E\	-ni	4G#\	-ni	4b\	-ni
8r	.	8B\	in	8r	.
!	!	!	!	!LO:LB:g=original	!
=13	=13	=13	=13	=13	=13
4r	.	8.A\	no-	4r	.
.	.	16B\	-mi-	.	.
8F#\	in	8A\	-ne	8r	.
8.E\	no-	4G#\	Do-	4r	.
16F#\	-mi-	.	.	.	.
8E\	-ne	8c#\	-mi-	8g#/	in
!LO:LB:g=original	!	!LO:LB:g=original	!	!	!
=14	=14	=14	=14	=14	=14
8.D#X\	Do-	4F#\	-ni	8.b\	no-
16D#\	-mi-	.	.	16cc#\	-mi-
8D#\	-ni	8F#\	in	8b\	-ne
!	!	!LO:TX:t=P:problem:krzyżyk dopisany ołówkiem	!	!	!
!	!	!LO:SIC:v:s=8D#	!	!	!
8.BB/	no-	8.D\	no-	4a/	Do-
16C#/	-mi-	16E\	-mi-	.	.
!	!	!LO:SIC:v:s=8D#	!	!	!
8BB/	-ne	8D\	-ne	8a/	-mi-
=15	=15	=15	=15	=15	=15
(4.C#/	Do-	(4.E\	Do-	(8g#/L	-ni
.	.	.	.	8cc#/J)	.
.	.	.	.	8b/	in
8C#/)	.	8E\)	.	8a/	no-
!LO:TX:t=P:problem:kasownik dopisany ołówkiem	!	!	!	!	!
!LO:SIC:v:s=8Dn	!	!	!	!	!
8D/	-mi-	8Fn\	-mi-	8g#/	-mi-
8C#/	-ni	8E\	-ni	8a/	-ne
!	!	!	!	!LO:LB:g=original	!
=16	=16	=16	=16	=16	=16
4BB/	Do-	(8F#\L	Do-	4dd\	Do-
.	.	16G#\L	.	.	.
.	.	16A\JJ	.	.	.
8BB/	-mi-	16G#\LL	-mi-	8dd\	-mi-
.	.	16F#\JJ)	.	.	.
8E;\	-ni.	4G#;\	-ni.	4b;\	-ni
8r	.	.	.	.	.
=||	=||	=||	=||	=||-	=||-
!	!	!LO:TX:a:i:t=Allegro	!	!LO:TX:a:i:t=Allegro	!
8E\	O-	8E\	O-	8e/	O-
!LO:LB:g=original	!	!LO:LB:g=original	!	!	!
=17	=17	=17	=17	=17	=17
4.AA/	-san-	4.E\	-san-	4.cc#\	-san-
8AA/	-na	8C#\	-na!	8a/	-na
8r	.	8r	.	8r	.
8AA/	O-	(16E\LL	O-	8cc#\	o-
.	.	16A\JJ)	.	.	.
=18	=18	=18	=18	=18	=18
4.A\	-san-	4.c#\	-san-	4.ee\	-san-
8AA/	-na!	8A\	-na	8cc#\	-na,
8r	.	8r	.	8r	.
8A\	O-	8A\	o-	8a/	o-
=19	=19	=19	=19	=19	=19
4D\	-san-	(8A\L	-san-	4ff#\	-san-
.	.	8B\J)	.	.	.
8D\	-na	8A\	-na	8ff#\	-na
4E\	in	(8G#\L	in	4ee\	in
.	.	8F#\J)	.	.	.
8E\	ex-	8G#\	ex-	8dd\	ex-
!	!	!	!	!LO:LB:g=original	!
=20	=20	=20	=20	=20	=20
4.F#\	-cel-	(8A\L	-cel-	4.dd\	-cel-
.	.	8B\	.	.	.
.	.	8A\J)	.	.	.
(8E#X\L	.	(8G#X\L	-sis,	8cc#\	-sis,
8F#\J	-sis,	8A\J)	.	8r	.
8En\)	O-	8Gn\	O-	8a/	o-
!LO:LB:g=original	!	!LO:LB:g=original	!	!	!
=21	=21	=21	=21	=21	=21
4.D\	-san-	4.F#\	-san-	4.dd\	-san-
8D\	-na!	8F#\	-na,	8a\	-na,
8r	.	8r	.	8r	.
8D\	o-	8F#\	o-	8dd\	O-
=22	=22	=22	=22	=22	=22
4.D\	-san-	4.A\	-san-	4.ff#\	-san-
8D\	-na!	8F#\	-na!	8dd\	-na,
8r	.	8r	.	8r	.
8D\	O-	8F#\	O-	8dd\	O-
=23	=23	=23	=23	=23	=23
4BB/	-san-	(8F#\L	-san-	4dd\	-san-
.	.	8B\J)	.	.	.
8BB/	-na	8A\	-na	8dd\	-na
4E\	in	4G#\	in	(8dd\L	in
.	.	.	.	8cc#\J	.
8E\	ex-	8G#\	ex-	8b\)	ex-
!	!	!	!	!LO:LB:g=original	!
=24	=24	=24	=24	=24	=24
4.E\	-cel-	4.G#\	-cel-	4.b\	-cel-
4A\	-sis.	4A\	-sis.	4a\	-sis.
!	!	!	!	!LO:TX:b:i:t=Dnia 27 Stycznia 1876	!
8r	.	8r	.	8r	.
!LO:PB:g=original	!	!LO:LB:g=original	!	!LO:LB:g=original	!
==	==	==	==	==	==
*-	*-	*-	*-	*-	*-
!!!system-decoration: [(s1,s2,s3)]
!!!ENC:Kamil Watkowski
!!!END:2021-03-06
!!!ENC: Marta Chmielewska
!!!END: 2021-03-26
